X:1
T:Title
%%score { ( 1 3 ) | ( 2 4 ) }
L:1/8
M:4/4
K:A
V:1 treble nm="Grand Piano"
V:3 treble 
V:2 bass 
V:4 bass 
V:1
 z4 z2[Q:1/4=100] [CE]2 | [CA]2 [CA]2 [Ec]3 [EA] | BAAF [CE]3 [CE] | [DF]2 [EA]2 [Ed]2 [Ec]2 | %4
[M:3/4] [EB]6 |[M:1/4] [DE]2 |[M:4/4] [CA]2 [CA]2 [Ec]3 [=GA] | [FB][FA][FA][DF] [CE]3 [CE] | %8
 [DF]2 [Fd]2 [Ec]2 [DB]2 |[M:3/4] [CA]6 |[M:1/4] z E |[M:4/4] B4 c4 | [Fd]2 [Fd]2 ccBF | %13
[M:7/8] B2 B2 z z2 |[M:1/4] [G,DE]2 |[M:4/4] [A,CA]2 [CA]2 [Ec]3 [=GA] | %16
 [FB][FA][FA][DF] [CE]3 [CE] | [DF]2 [Fd]2 [Ec]2 [DB]2 |[M:3/4] [CA]6 |] %19
V:2
 z4 z2 [A,,A,]2 | [A,,E,]2 [A,,E,]2 [A,,A,]3 [C,A,] | %2
 [D,A,D][D,F,D][D,F,D][D,A,D] [A,,A,]3 [A,,A,] | [D,A,]2 [C,A,]2 [B,,G,]2 [A,,A,]2 | %4
[M:3/4] [E,G,]6 |[M:1/4] [E,G,]2 |[M:4/4] [A,,A,]2 [A,,E,]2 [A,,A,]3 [C,A,] | %7
 [D,A,][D,A,][D,A,][D,A,] [A,,A,]3 [A,,A,] | [D,A,]2 [B,,A,]2 [E,A,]2 [E,G,]2 |[M:3/4] [A,,E,A,]6 | %10
[M:1/4] z2 |[M:4/4] z [E,D] .[E,D]2 z [A,E][A,E][A,C] | %12
 [D,A,]2 [E,G,]2 [F,A,E][F,A,E][F,A,^D][F,A,D] |[M:7/8] [G,E]A, z C E,3 |[M:1/4] E,2 | %15
[M:4/4] A,,2 [A,,E,]2 [A,,A,]3 [C,A,] | [D,A,][D,A,][D,A,][D,A,] [A,,A,]3 [A,,A,] | %17
 [D,A,]2 [B,,A,]2 [E,A,]2 [E,G,]E, |[M:3/4] [A,,E,]6 |] %19
V:3
 x8 | x8 | x8 | x8 |[M:3/4] x6 |[M:1/4] x2 |[M:4/4] x8 | x8 | x8 |[M:3/4] x6 |[M:1/4] x2 | %11
[M:4/4] z GGE z AAE | x8 |[M:7/8] z F[B,G] A [DGB]3 |[M:1/4] x2 |[M:4/4] x8 | x8 | x8 | %18
[M:3/4] x6 |] %19
V:4
 x8 | x8 | x8 | x8 |[M:3/4] x6 |[M:1/4] x2 |[M:4/4] x8 | x8 | x8 |[M:3/4] x6 |[M:1/4] x2 | %11
[M:4/4] x8 | x8 |[M:7/8] E,2 E,2 z z2 |[M:1/4] x2 |[M:4/4] x8 | x8 | x8 |[M:3/4] x6 |] %19

